!!!!SEGMENT: pl-kk--kk-i-382--013-002_anonim--nro-4-sanctus.krn
!!!cenid: 18xx:1476
!!!COM: Anonim
!!!COM-rism: pe30004985
!!!CDT:
!!!CNT:
!!!OTL: Nro 4 Sanctus
!!!PDT:
!!!AGN: Sacred
!!!SMS-siglum: PL-Kk
!!!SMS-shelfmark: Kk.I.382
!!!NIFC-rismID: 1001139096
!!!URL-scan: http://repozytorium.nifc.pl/skany/pl-kk-nut--i-382
!!!ONB-nifc: UWAGA: obsada: S (T 1), A (B 1), T 2, B 2; S (T 1): skan 0013; A (B 1): skan 0157-0158; T 2: skan 0084; B 2: skan 0230
!!!SMS-variant:
!!!SMS-altvar:
**kern	**text	**kern	**text	**kern	**text	**kern	**text
*part4	*part4	*part3	*part3	*part2	*part2	*part1	*part1
*staff4	*staff4	*staff3	*staff3	*staff2	*staff2	*staff1	*staff1
*I"Basso II	*	*I"Tenore II	*	*I"Alto vel Basso I	*	*I"Soprano vel Tenore I.	*
*I'B 2	*	*I'T 2	*	*I'A (B 1)	*	*I'S (T 1)	*
*clefF4	*	*clefC4	*	*clefC3	*	*clefC1	*
*k[]	*	*k[]	*	*k[]	*	*k[]	*
*M4/4	*	*M4/4	*	*M4/4	*	*M4/4	*
*met(C.)	*	*met(C.)	*	*met(C.)	*	*met(C.)	*
=1	=1	=1	=1	=1	=1	=1	=1
*2\right	*	*2\right	*	*2\right	*	*2\right	*
!LO:TX:a:i:t=in C. \nSanctus	!	!	!	!	!	!	!
!LO:TX:t=P:problem:all\right:global	!	!LO:TX:t=P:problem:all\right:global	!	!LO:TX:t=P:problem:all\right:global	!	!LO:TX:t=P:problem:all\right:global	!
!LO:TX:a:t=P:problem:w źródle "in C. Sanctus" zapisane przed pierwszym taktem, na pięciolinii i częściowo nad pięciolinią	!	!LO:TX:a:t=P:problem:w źródle "Sanctus in C." zapisane przed pierwszym taktem, na pięciolinii i częściowo pod pięciolinią	!	!LO:TX:a:t=P:problem:w źródle "Sanctus" zapisane przed pierwszym taktem, na pięciolinii	!	!LO:TX:a:t=P:problem:w źródle "Sanctus" zapisane przed pierwszym taktem, na pięciolinii	!
!	!	!LO:TX:a:i:t=Sanctus \nin C.	!	!LO:TX:a:i:t=Sanctus	!	!LO:TX:a:i:t=Sanctus	!
!	!	!	!	!	!	!LO:TX:a:t=P:problem:w źródle "Cdur" apisane ukośnie, ołówkiem	!
!	!	!	!	!	!	!LO:TX:a:i:t=Cdur	!
4C\	San-	1G	San-	1e	San-	1cc	San-
4D\	.	.	.	.	.	.	.
4E\	.	.	.	.	.	.	.
4F\	.	.	.	.	.	.	.
=2	=2	=2	=2	=2	=2	=2	=2
4G\	.	1G	-ctus	1d	-ctus	1b	-ctus
4A\	.	.	.	.	.	.	.
(>4B\	-ctus	.	.	.	.	.	.
4G\)	.	.	.	.	.	.	.
=3	=3	=3	=3	=3	=3	=3	=3
4B\	San-	1d	San-	1f	San-	1g	san-
4A\	.	.	.	.	.	.	.
4G\	.	.	.	.	.	.	.
4B\	.	.	.	.	.	.	.
=4	=4	=4	=4	=4	=4	=4	=4
4c\	.	1c	-ctus	1e	-ctus	1g	-ctus
4G\	.	.	.	.	.	.	.
(>4E\	-ctus	.	.	.	.	.	.
4C/)	.	.	.	.	.	.	.
=5	=5	=5	=5	=5	=5	=5	=5
!	!	!LO:TX:a:t=P:problem:pierwotnie w źródle pod tą nutą sylaba "Do-"; zmiany w podłżeniu tekstu zostały zapisane ołówkiem	!	!	!	!	!
4C\	san-	4c\	San-	4g\	San-	4ee\	san-
!	!	!LO:TX:a:t=P:problem:pierwotnie w źródle pod tą nutą sylaba "-mi-"; zmiany w podłżeniu tekstu zostały zapisane ołówkiem	!	!	!	!	!
4D\	.	4B\	.	4f\	.	4dd\	.
!	!	!LO:TX:a:t=P:problem:pierwotnie w źródle pod tą nutą sylaba "-nus"; zmiany w podłżeniu tekstu zostały zapisane ołówkiem	!	!	!	!	!
4E\	.	2G/	.	4e\	.	4cc\	.
4C\	.	.	.	4g\	.	4ee\	.
=6	=6	=6	=6	=6	=6	=6	=6
!	!	!LO:TX:a:t=P:problem:pierwotnie w źródle pod tą nutą sylaba "De-"; zmiany w podłżeniu tekstu zostały zapisane ołówkiem	!	!	!	!	!
1G	.	2B\	.	4f\	.	4dd\	.
.	.	.	.	4e\	.	4cc\	.
!	!	!LO:TX:a:t=P:problem:pierwotnie w źródle pod tą nutą sylaba "-us"; zmiany w podłżeniu tekstu zostały zapisane ołówkiem	!	!	!	!	!
.	.	2G/	.	4d\	.	4b\	.
.	.	.	.	4f\	.	4dd\	.
=7	=7	=7	=7	=7	=7	=7	=7
!	!	!LO:TX:a:t=P:problem:pierwotnie w źródle pod tą nutą sylaba "sa-"; zmiany w podłżeniu tekstu zostały zapisane ołówkiem	!	!	!	!	!
4c\	.	2G/	.	2e\	.	(>2cc\	.
4C/	.	.	.	.	.	.	.
!	!	!LO:TX:a:t=P:problem:pierwotnie w źródle pod tą nutą sylaba "-ba-"; zmiany w podłżeniu tekstu zostały zapisane ołówkiem	!	!	!	!	!
4F\	.	2A/	.	4f\	.	4dd\	.
4F#X\	.	.	.	4e\	.	4cc\)	.
!LO:LB:g=original	!	!	!	!	!	!LO:LB:g=original	!
=8	=8	=8	=8	=8	=8	=8	=8
!	!	!LO:TX:a:t=P:problem:pierwotnie w źródle pod tą nutą sylaba "-ot"; zmiany w podłżeniu tekstu zostały zapisane ołówkiem	!	!	!	!	!
1G	-ctus	1G	-ctus.	1d	-ctus	1b	-ctus
!	!	!	!	!LO:LB:g=original	!	!	!
=9	=9	=9	=9	=9	=9	=9	=9
2G\	Do-	2B\	Do-	2f\	Do-	2dd\	Do-
4G\	-mi-	4G/	-mi-	4e\	-mi-	4cc\	-mi-
4G\	-nus	4G/	-nus	4d\	-nus	4b\	-nus
!	!	!LO:LB:g=original	!	!	!	!	!
=10	=10	=10	=10	=10	=10	=10	=10
(<4C/	De-	2c/	De-	2g\	De-	2ee\	De-
4E/)	.	.	.	.	.	.	.
(>4G\	-us	(>4B\	-us	(>4f\	-us	(>4dd\	-us
4c\)	.	4c\)	.	4e\)	.	4cc\)	.
=11	=11	=11	=11	=11	=11	=11	=11
2.G\	sa-	4d\	sa-	(>4d\	Sa-	(>4b\	sa-
.	.	4c\	.	4e\)	.	4cc\)	.
.	.	4B\	-ba-	(>4f\	-ba-	(>4dd\	-ba-
4F#X\	-ba-	4c\	.	4e\)	.	4cc\)	.
=12	=12	=12	=12	=12	=12	=12	=12
!LO:SIC:v:l:s=-oth	!	!LO:SIC:v:l:s=-oth	!	!	!	!	!
1G	-ot	1G	-ot	1d;>	-oth	1b	-oth
==13	==13	==13	==13	==13	==13	==13	==13
2G\	Ple-	2B\	ple-	2g\	ple-	2dd\	Ple-
4G\	-ni	4B\	-ni	4g\	-ni	4dd\	-ni
4G\	sunt	4B\	sunt	4g\	sunt	4dd\	sunt
=14	=14	=14	=14	=14	=14	=14	=14
!LO:SIC:v:l:s=cae-	!	!LO:SIC:v:l:s=cae-	!	!LO:SIC:v:l:s=cae-	!	!LO:SIC:v:l:s=cae-	!
2A\	ce-	2c\	ce-	2f#X\	ce-	2dd\	ce-
2A\	-li	2c\	-li	2f#\	-li	2dd\	-li
!	!	!	!	!	!	!LO:LB:g=original	!
=15	=15	=15	=15	=15	=15	=15	=15
!LO:SIC:v:l:s=cae-	!	!LO:SIC:v:l:s=cae-	!	!LO:SIC:v:l:s=cae-	!	!LO:SIC:v:l:s=cae-	!
2B\	ce-	2d\	ce-	2fn\	ce-	2g\	ce-
4B\	-li	4d\	-li	4f\	-li	4g\	-li
4B\	et	4d\	et	4f\	et	4g\	et
!LO:LB:g=original	!	!	!	!LO:LB:g=original	!	!	!
=16	=16	=16	=16	=16	=16	=16	=16
2c\	ter-	2c\	ter-	2e\	ter-	2g\	ter-
2C/	-ra	2c\	-ra	2e\	-ra	2g\	-ra
=17	=17	=17	=17	=17	=17	=17	=17
1F#X	glo-	1c	glo-	1e-X	glo-	1a	glo-
=18	=18	=18	=18	=18	=18	=18	=18
2F#X\	-ri-	2c\	-ri-	2e-X\	-ri-	2a\	-ri-
2F#\	-a	2c\	-a	2e-\	-a	2a\	-a
!	!	!LO:LB:g=original	!	!	!	!	!
=19	=19	=19	=19	=19	=19	=19	=19
1F#X	tu-	1c	tu-	1e-X	tu-	1a	tu-
=20	=20	=20	=20	=20	=20	=20	=20
1G	-a	1B	-a.	1d;>	-a.	1g	-a
==21	==21	==21	==21	==21	==21	==21	==21
*	*	*	*	*M4/4	*	*	*
*	*	*	*	*met(C.)	*	*	*
(>4C\	O-	1G	O-	1en	O-	1cc	O-
4D\	.	.	.	.	.	.	.
4E\	.	.	.	.	.	.	.
4C\)	.	.	.	.	.	.	.
=22	=22	=22	=22	=22	=22	=22	=22
(>4G\	-san-	4d\	-san-	(>4d\	-san-	(>4b\	-san-
4A\	.	4c\	.	4e\	.	4cc\	.
4B\	.	4B\	.	4f\	.	4dd\	.
4G\)	.	4d\	.	4d\)	.	4b\)	.
!	!	!	!	!	!	!LO:LB:g=original	!
=23	=23	=23	=23	=23	=23	=23	=23
2c\	-na	2G/	-na	2e\	-na	2cc\	-na
2c\	o-	2c\	o-	2g\	o-	2ee\	o-
=24	=24	=24	=24	=24	=24	=24	=24
(>2c\	-san-	2c\	-san-	(>2g\	-san-	(>2ee\	-san-
2G\)	.	2B\	-na	2f\)	.	2dd\)	.
=25	=25	=25	=25	=25	=25	=25	=25
2C/	-na	2G/	in	2e\	-na	1cc	-na
2C/	in	2G/	ex-	(>2e\	in	.	.
!LO:LB:g=original	!	!	!	!	!	!	!
=26	=26	=26	=26	=26	=26	=26	=26
2G\	.	2B\	-cel-	2f\)	.	2dd\	in
2C/	ex-	2G/	.	2e\	ex-	2cc\	ex-
!	!	!	!	!LO:LB:g=original	!	!	!
=27	=27	=27	=27	=27	=27	=27	=27
1G	-cel-	1G	.	(2d\	-cel-	(>2b\	-cel-
.	.	.	.	2c\)	.	2a\)	.
=28	=28	=28	=28	=28	=28	=28	=28
1G	-sis	2G/	-sis	2d\	-sis	2b\	-sis
.	.	2r	.	2r	.	2r	.
=29	=29	=29	=29	=29	=29	=29	=29
1G	o-	1B	O-	1f	O-	1dd	O-
!	!	!LO:LB:g=original	!	!	!	!	!
=30	=30	=30	=30	=30	=30	=30	=30
2G\	-san-	2G/	-san-	2e\	-san-	2cc\	-san-
2G\	-na	2G/	-na	2d\	-na	2b\	-na
=31	=31	=31	=31	=31	=31	=31	=31
2G\	in	2G/	in	2d\	in	2b\	in
2B\	ex-	2B\	ex-	2f\	ex-	2dd\	ex-
!	!	!	!	!	!	!LO:LB:g=original	!
=32	=32	=32	=32	=32	=32	=32	=32
2G\	-cel-	2G/	-cel-	2e\	-cel-	2cc\	-cel-
2G\	-sis	2G/	-sis	2d\	-sis	2b\	-sis
=33	=33	=33	=33	=33	=33	=33	=33
!	!	!	!	!	!	!LO:TX:a:t=P:problem:w źródle ta adnotacja zapisana ołówkiem	!
!	!	!	!	!	!	!LO:TX:a:t=uniſono	!
(>4C\	in	(>4c\	in	(>4e\	in	(>4cc\	in
4F\)	.	4B\)	.	4d\)	.	4b\)	.
(>4E\	ex-	(>4c\	ex-	(>4e\	ex-	(>4cc\	ex-
4D\)	.	4d\)	.	4f\)	.	4dd\)	.
=34	=34	=34	=34	=34	=34	=34	=34
1C	-cel-	2e\	-cel-	2g\	-cel-	2ee\	-cel-
.	.	(>4d\	-sis	(>4f\	.	(>4dd\	-sis
.	.	4c\)	.	4e\	.	4cc\)	.
=35	=35	=35	=35	=35	=35	=35	=35
(>2G\	.	2G/	in	2d\	.	2b\	in
2E\	.	2G/	ex-	2e\	.	2cc\	ex-
=36	=36	=36	=36	=36	=36	=36	=36
1G)	.	1G	-cel-	1d)	.	(>2cc\	-cel-
.	.	.	.	.	.	2b\)	.
=37	=37	=37	=37	=37	=37	=37	=37
1C	-sis	1G	-sis	1e	-sis	1cc	-sis.
!LO:LB:g=original	!	!LO:LB:g=original	!	!LO:PB:g=original	!	!LO:LB:g=original	!
==38	==38	==38	==38	==38	==38	==38	==38
*M3/2	*	*M3/2	*	*M3/2	*	*M3/2	*
*	*	*rscale:1/2	*	*	*	*rscale:1/2	*
!	!	!LO:TX:a:i:t=Benedictus	!	!	!	!	!
!LO:TX:a:i:t=Benedictus	!	!LO:TX:t=P:problem:w źródle metrum 3/4, ale w pozostałych głosach 3/2; zastosowano rscale	!	!LO:TX:a:i:t=Benedictus	!	!LO:TX:t=P:problem:w źródle metrum 3/4, ale w pozostałych głosach 3/2; zastosowano rscale	!
!LO:TX:a:t=P:problem:w źródle "Benedictus" zapisane przed taktem 38, na pięciolinii	!	!LO:TX:a:t=P:problem:w źródle "Benedictus" zapisane przed taktem 38, na pięciolinii	!	!LO:TX:a:t=P:problem:w źródle "Benedictus" zapisane przed taktem 38, na pięciolinii	!	!LO:TX:a:t=P:problem:w źródle "Benedictus" zapisane przed taktem 38, na pięciolinii	!
!	!	!	!	!	!	!LO:TX:a:i:t=Benedictus	!
!	!	!	!	!	!	!LO:TX:a:t=P:problem:w źródle "Amoll" apisane ukośnie, ołówkiem	!
!	!	!	!	!	!	!LO:TX:a:i:t=Amoll	!
1c	Be-	1c	Be-	1g	Be-	1ee	Be-
2B\	-ne-	2B\	-ne-	2f\	-ne-	2dd\	-ne-
=39	=39	=39	=39	=39	=39	=39	=39
2B\	-dic-	2B\	-dic-	2f\	-di-	2dd\	-di-
2G\	-tus	2G/	-tus	2e\	-ctus	2cc\	-ctus
2c\	qui	2c\	qui	2g\	qui	2ee\	qui
=40	=40	=40	=40	=40	=40	=40	=40
2F\	ve-	2F/	ve-	2f\	ve-	(>2dd\	ve-
1G	.	1G	.	2e\	.	2cc\	.
.	.	.	.	2d\	.	2b\)	.
=41	=41	=41	=41	=41	=41	=41	=41
2c\	-nit	2c\	-nit	2e\	-nit	2cc\	-nit
2r	.	2r	.	2r	.	2r	.
2G\	in	2G/	in	2e\	in	2cc\	in
=42	=42	=42	=42	=42	=42	=42	=42
1.G	no-	1.G	no-	2e\	no-	2cc\	no-
.	.	.	.	4d\	.	(>4b\L	-mi-
.	.	.	.	4e\	.	4cc\)J	.
.	.	.	.	2f\	.	2dd\	-ne
!	!	!	!	!	!	!LO:LB:g=original	!
=43	=43	=43	=43	=43	=43	=43	=43
1.c	.	1.c	.	2f\	.	2dd\	no-
.	.	.	.	4e\	.	(>4cc\L	-mi-
.	.	.	.	4f\	.	4dd\)J	.
.	.	.	.	2g\	.	2ee\	-ne
!LO:LB:g=original	!	!	!	!LO:LB:g=original	!	!	!
=44	=44	=44	=44	=44	=44	=44	=44
2c\	.	2c\	.	4g\	.	(>4ee\L	no-
.	.	.	.	4f\	.	4dd\)J	.
2F\	-mi-	2F/	-mi-	(>4a\	-mi-	(>4ff\L	-mi-
.	.	.	.	4g\)	.	4ee\)J	.
2F#X\	-ne	2F#X/	-ne	(>4f\	-ne	(>4dd\L	-ne
.	.	.	.	4e\)	.	4cc\)J	.
=45	=45	=45	=45	=45	=45	=45	=45
4G\	Do-	4G/	Do-	4e\	Do-	4cc\	Do-
4G\	-mi-	4G/	-mi-	4e\	-mi-	4cc\	-mi-
2G\	-ni	2G/	-ni	2d\	-ni	2b\	-ni
2r	.	2r	.	2r	.	2r	.
!	!	!LO:LB:g=original	!	!	!	!	!
=46	=46	=46	=46	=46	=46	=46	=46
!	!	!LO:TX:a:t=P:problem:w źródle ta adnotacja zapisana ołówkiem	!	!	!	!	!
!	!	!LO:TX:a:i:t=Strasznie do Benedic. Kiepskie dać go ad. Acta.	!	!	!	!	!
(>2G\	Be-	2G/	be-	1f	Be-	1dd	Be-
!	!	!LO:TX:t=P:problem:zapis poprawiany	!	!	!	!	!
!	!	!LO:TX:a:t=h	!	!	!	!	!
2B\)	.	2B\	.	.	.	.	.
2c\	-ne-	2c\	-ne-	(>4e\	-ne-	(>4cc\L	-ne-
.	.	.	.	4f\)	.	4dd\)J	.
=47	=47	=47	=47	=47	=47	=47	=47
(>2G\	-dic-	2G/	-dic-	(>2e\	-dic-	(>2cc\	-dic-
2F\)	.	2Fn/	.	2d\)	.	2b\)	.
2E\	-tus	2E/	-tus	2c\	-tus	2g\	-tus
=48	=48	=48	=48	=48	=48	=48	=48
(>2G\	qui	2G/	qui	1f	qui	(>1dd	qui
2B\	.	2B\	.	.	.	.	.
2c\)	.	2c\	.	4e\	.	4cc\L	.
.	.	.	.	4f\	.	4dd\)J	.
!	!	!	!	!	!	!LO:LB:g=original	!
=49	=49	=49	=49	=49	=49	=49	=49
(>2G\	ve-	2G/	ve-	(>2e\	ve-	(>2cc\	ve-
2F\)	.	2F/	.	2d\)	.	2b\)	.
4E\	-nit	4E/	-nit	4e\	-nit	4g\	-nit
4c\	in	4c\	in	4g\	in	4ee\	in
!LO:LB:g=original	!	!	!	!LO:LB:g=original	!	!	!
=50	=50	=50	=50	=50	=50	=50	=50
2.c\	no-	2.c\	no-	2.g\	no-	2.ee\	no-
4B\	-mi-	4B\	-mi-	4f\	-mi-	4dd\	-mi-
2G\	-ne	2G/	-ne	2e\	-ne	2cc\	-ne
=51	=51	=51	=51	=51	=51	=51	=51
(>2A\	Do-	(<2A/	Do-	(>2f\	Do-	(>2dd\	Do-
2G\)	.	2G/)	.	2e\)	.	2cc\)	.
2G\	-mi-	2G/	-mi-	2d\	-mi-	2b\	-mi-
=52	=52	=52	=52	=52	=52	=52	=52
2G\	-ni	2G/	-ni	2e\	-ni	2g\	-ni
2r	.	2r	.	2r	.	2r	.
2c\	in	2c\	in	2g\	in	2ee\	in
!	!	!LO:LB:g=original	!	!	!	!	!
=53	=53	=53	=53	=53	=53	=53	=53
2.c\	no-	2.c\	no-	2.g\	no-	2.ee\	no-
4B\	-mi-	4B\	-mi-	4f\	-mi-	4dd\	-mi-
2G\	-ne	2G/	-ne	2e\	-ne	2cc\	-ne
=54	=54	=54	=54	=54	=54	=54	=54
(>2A\	Do-	2A/	Do-	(>2f\	Do-	(>2dd\	Do-
2G\)	.	2G/	.	2e\)	.	2cc\)	.
2G\	-mi-	2G/	-mi-	2d\	-mi-	2b\	-mi-
!	!	!	!	!	!	!LO:LB:g=original	!
=55	=55	=55	=55	=55	=55	=55	=55
2G\	-ni	2G/	-ni	2e\	-ni	2cc\	-ni
2c\	be-	2c\	be-	2a\	be-	2ff\	be-
2c\	-ne-	2c\	-ne-	2g\	-ne-	2ee\	-ne-
!LO:LB:g=original	!	!	!	!LO:LB:g=original	!	!	!
=56	=56	=56	=56	=56	=56	=56	=56
1c	-dic-	1c	-dic-	(>1g	-dic-	(>1ee	-dic-
2B\	.	2B\	.	2f\)	.	2dd\)	.
=57	=57	=57	=57	=57	=57	=57	=57
!	!	!	!	!	!	!LO:TX:a:t=P:problem:w źródle ta adnotacja zapisana za taktem 57, na pięciolinii	!
!	!	!	!	!	!	!LO:TX:a:i:t=Osanna Da Capo.	!
1.G	-tus.	1.G	-tus	1.e	-tus	1.cc	-tus.
!LO:LB:g=original	!	!	!	!	!	!LO:PB:g=original	!
==58	==58	==58	==58	==58	==58	==58	==58
*M4/4	*	*M4/4	*	*M4/4	*	*M4/4	*
*met(C.)	*	*met(C.)	*	*met(C.)	*	*met(C.)	*
*	*	*rscale:1	*	*	*	*rscale:1	*
!	!	!	!	!	!	!LO:TX:t=P:problem:powtórzenie taktów 21-37	!
!LO:TX:a:t=P:problem:w źródle ta adnotacja zapisana przed taktem 58, na pięciolinii	!	!	!	!	!	!	!
!LO:TX:a:i:t=Osanna	!	!	!	!	!	!	!
(>4C\	O-	1G	O-	1e	O-	1ccyy	O-
4D\	.	.	.	.	.	.	.
4E\)	.	.	.	.	.	.	.
4C\	.	.	.	.	.	.	.
=59	=59	=59	=59	=59	=59	=59	=59
(>4G\	-san-	4d\	-san-	(>4d\	-san-	(>4b\yy	-san-
4A\	.	4c\	.	4e\	.	4cc\yy	.
4B\	.	4B\	.	4f\	.	4dd\yy	.
4G\)	.	4d\	.	4d\)	.	4b\)yy	.
=60	=60	=60	=60	=60	=60	=60	=60
2c\	-na	2G/	-na	2e\	-na	2cc\yy	-na
2c\	o-	2c\	o-	2g\	o-	2ee\yy	o-
=61	=61	=61	=61	=61	=61	=61	=61
(>2c\	-san-	2c\	-san-	(>2g\	-san-	(>2ee\yy	-san-
2G\)	.	2B\	-na	2f\)	.	2dd\)yy	.
!	!	!LO:LB:g=original	!	!	!	!	!
=62	=62	=62	=62	=62	=62	=62	=62
2C/	-na	2G/	in	2e\	-na	1ccyy	-na
(>2C/	in	2G/	ex-	(>2e\	in	.	.
=63	=63	=63	=63	=63	=63	=63	=63
2G\)	.	2B\	-cel-	2f\)	.	2dd\yy	in
2C/	ex-	2G/	.	2e\	ex-	2cc\yy	ex-
=64	=64	=64	=64	=64	=64	=64	=64
1G	-cel-	1G	.	(>2d\	-cel-	(>2b\yy	-cel-
.	.	.	.	2c\)	.	2a\)yy	.
!	!	!	!	!LO:LB:g=original	!	!	!
=65	=65	=65	=65	=65	=65	=65	=65
1G	-sis	1G	-sis	2d\	-sis	2b\yy	-sis
.	.	.	.	2r	.	2ryy	.
!LO:LB:g=original	!	!	!	!	!	!	!
=66	=66	=66	=66	=66	=66	=66	=66
!	!	!LO:TX:a:t=P:problem:w źródle ta adnotacja zapisana ołówkiem	!	!	!	!	!
!	!	!LO:TX:a:i:t=Baſs	!	!	!	!	!
1G	O-	1B	O-	1f	O-	1ddyy	O-
=67	=67	=67	=67	=67	=67	=67	=67
2G\	-san-	2G/	-san-	2e\	-san-	2cc\yy	-san-
2G\	-na	2G/	-na	2d\	-na	2b\yy	-na
=68	=68	=68	=68	=68	=68	=68	=68
2G\	in	2G/	in	2d\	in	2b\yy	in
2B\	ex-	2B\	ex-	2f\	ex-	2dd\yy	ex-
=69	=69	=69	=69	=69	=69	=69	=69
2G\	-cel-	2G/	-cel-	2e\	-cel-	2cc\yy	-cel-
2G\	-sis	2G/	-sis	2d\	-sis	2b\yy	-sis
=70	=70	=70	=70	=70	=70	=70	=70
!	!	!LO:TX:a:t=P:problem:w źródle ta adnotacja zapisana ołówkiem	!	!	!	!	!
!	!	!LO:TX:a:i:t=Sopran	!	!	!	!	!
(>4C\	in	(>4c\	in	(>4e\	O-	(>4cc\yy	in
4F\)	.	4B\)	.	4d\	.	4b\)yy	.
(>4E\	ex-	(>4c\	ex-	4e\	.	(>4cc\yy	ex-
4D\)	.	4d\)	.	4f\)	.	4dd\)yy	.
=71	=71	=71	=71	=71	=71	=71	=71
1C	-cel-	2e\	-cel-	2g\	-san-	2ee\yy	-cel-
.	.	(>4d\	-sis	(>4f\	-na	(>4dd\yy	-sis
.	.	4c\)	.	4e\)	.	4cc\)yy	.
!	!	!LO:LB:g=original	!	!	!	!	!
=72	=72	=72	=72	=72	=72	=72	=72
2G\	.	2G/	in	2d\	in	2b\yy	in
2E\	.	2G/	ex-	2e\	ex-	2cc\yy	ex-
=73	=73	=73	=73	=73	=73	=73	=73
1G	.	1G	-cel-	1d	-cel-	(>2cc\yy	-cel-
.	.	.	.	.	.	2b\)yy	.
=74	=74	=74	=74	=74	=74	=74	=74
1C	-sis.	1G	-sis.	1e	-sis.	1ccyy	-sis.
==	==	==	==	==	==	==	==
*-	*-	*-	*-	*-	*-	*-	*-
!!!system-decoration: [(s1,s2,s3,s4)]
!!!RDF**kern: > = above
!!!RDF**kern: < = below
!!!EED: Antoni Szymański
!!!EST: 2021-02-02
!!!ENC: Andrzej Gręziak
!!!END: 2021-01-29
